assets/Sunrise over mountains/Flat/sunrise_over_mountains_flat.svg

<svg width="32" height="32" viewBox="0 0 32 32" fill="none" xmlns="http://www.w3.org/2000/svg">
<path d="M2 6C2 3.79086 3.79086 2 6 2H26C28.2091 2 30 3.79086 30 6V20.5L25.2475 22.4334C24.7688 22.6281 24.2569 22.7283 23.7402 22.7283H8.01663C7.47452 22.7283 6.93807 22.6181 6.43986 22.4044L2 20.5V6Z" fill="#FF5E59"/>
<path d="M14.6086 6.3475C15.3842 5.59641 16.6159 5.5964 17.3914 6.3475L18.2479 7.17701C18.4697 7.39177 18.7782 7.49208 19.0838 7.4488L20.264 7.28168C21.3324 7.1304 22.3282 7.85389 22.5144 8.91675L22.7209 10.0952C22.7741 10.3989 22.9645 10.6611 23.2368 10.8057L24.2929 11.3667C25.245 11.8724 25.6249 13.0418 25.1519 14.0105L24.626 15.0875C24.4908 15.3644 24.4908 15.6882 24.626 15.9651L25.1519 17.0421C25.6249 18.0108 25.245 19.1802 24.2928 19.6859L23.2368 20.2468C22.9645 20.3915 22.7741 20.6537 22.7209 20.9574L22.5144 22.1358C22.3282 23.1987 21.3324 23.9222 20.264 23.7709L19.0838 23.6038C18.7782 23.5605 18.4697 23.6608 18.2479 23.8756L17.3914 24.7051C16.6159 25.4562 15.3842 25.4562 14.6086 24.7051L13.7521 23.8756C13.5304 23.6608 13.2219 23.5605 12.9162 23.6038L11.736 23.7709C10.6677 23.9222 9.67188 23.1987 9.48565 22.1358L9.27916 20.9574C9.22594 20.6537 9.03558 20.3915 8.76326 20.2468L7.70721 19.6859C6.75511 19.1802 6.37517 18.0108 6.84821 17.0421L7.37409 15.9651C7.50929 15.6882 7.50929 15.3644 7.37409 15.0875L6.84821 14.0105C6.37517 13.0418 6.75511 11.8724 7.70721 11.3667L8.76326 10.8057C9.03558 10.6611 9.22594 10.3989 9.27916 10.0952L9.48565 8.91675C9.67188 7.85389 10.6677 7.1304 11.736 7.28168L12.9162 7.4488C13.2219 7.49208 13.5304 7.39177 13.7521 7.17701L14.6086 6.3475Z" fill="#FF9F2E"/>
<path d="M16 23C20.1421 23 23.5 19.6421 23.5 15.5C23.5 11.3579 20.1421 8 16 8C11.8579 8 8.5 11.3579 8.5 15.5C8.5 19.6421 11.8579 23 16 23Z" fill="#FCD53F"/>
<path d="M2 20V26C2 26.4524 2.07512 26.8873 2.21357 27.2929C3.98181 27.2929 5.67056 27.2929 8 27.2929V22L5.06756 19.4341C4.44524 18.8896 3.52671 18.855 2.86517 19.3511L2 20Z" fill="#14A085"/>
<path d="M26 30H5.99997C4.09982 30 2.50912 28.6751 2.10132 26.8987L14.3029 14.6971C15.2402 13.7598 16.7598 13.7598 17.697 14.6971L24.5333 21.5333L26.9324 19.4341C27.5547 18.8896 28.4733 18.855 29.1348 19.3511L30 20V26C30 26.309 29.9649 26.6098 29.8986 26.8987C29.4908 28.6751 27.9001 30 26 30Z" fill="#007356"/>
<path d="M17.5 24H18.3786C18.7765 24 19.158 24.158 19.4393 24.4393L25 30H5.99997C4.09982 30 2.50912 28.6751 2.10132 26.8987L14.3029 14.6971C14.7715 14.2285 15.3858 13.9941 16 13.9941V22.5C16 23.3284 16.6715 24 17.5 24Z" fill="#008463"/>
</svg>

<svg xmlns="http://www.w3.org/2000/svg" width="32" height="32" fill="none"><path fill="#FF5E59" d="M2 6a4 4 0 0 1 4-4h20a4 4 0 0 1 4 4v14.5l-4.753 1.933c-.478.195-.99.295-1.507.295H8.017a4 4 0 0 1-1.577-.324L2 20.5V6Z"/><path fill="#FF9F2E" d="M14.609 6.348a2 2 0 0 1 2.782 0l.857.829a1 1 0 0 0 .836.272l1.18-.167a2 2 0 0 1 2.25 1.635l.207 1.178a1 1 0 0 0 .516.71l1.056.562a2 2 0 0 1 .859 2.643l-.526 1.078a1 1 0 0 0 0 .877l.526 1.077a2 2 0 0 1-.86 2.644l-1.055.56a1 1 0 0 0-.516.711l-.207 1.179a2 2 0 0 1-2.25 1.635l-1.18-.167a1 1 0 0 0-.836.272l-.857.83a2 2 0 0 1-2.782 0l-.857-.83a1 1 0 0 0-.836-.272l-1.18.167a2 2 0 0 1-2.25-1.635l-.207-1.179a1 1 0 0 0-.516-.71l-1.056-.561a2 2 0 0 1-.859-2.644l.526-1.077a1 1 0 0 0 0-.877l-.526-1.077a2 2 0 0 1 .86-2.644l1.055-.561a1 1 0 0 0 .516-.71l.207-1.18a2 2 0 0 1 2.25-1.634l1.18.167a1 1 0 0 0 .836-.272l.857-.83Z"/><path fill="#FCD53F" d="M16 23a7.5 7.5 0 1 0 0-15 7.5 7.5 0 0 0 0 15Z"/><path fill="#14A085" d="M2 20v6c0 .452.075.887.214 1.293H8V22l-2.932-2.566a1.75 1.75 0 0 0-2.203-.083L2 20Z"/><path fill="#007356" d="M26 30H6c-1.9 0-3.49-1.325-3.899-3.101l12.202-12.202a2.4 2.4 0 0 1 3.394 0l6.836 6.836 2.4-2.099a1.75 1.75 0 0 1 2.202-.083L30 20v6a4.002 4.002 0 0 1-4 4Z"/><path fill="#008463" d="M17.5 24h.879a1.5 1.5 0 0 1 1.06.44L25 30H6c-1.9 0-3.49-1.325-3.899-3.101l12.202-12.202A2.393 2.393 0 0 1 16 13.994V22.5a1.5 1.5 0 0 0 1.5 1.5Z"/></svg>
